Suru++-Ubuntu/apps/symbolic/emoji-travel-symbolic.svg

<svg width="16" height="16" version="1.1" xmlns="http://www.w3.org/2000/svg">
 <path d="m3 1c-0.727583 0-1.3298347 1.4994719-1.46875 3.5019531a1 1 0 0 0-0.03125-0.0019531 1 1 0 0 0-1 1 1 1 0 0 0 0.25390625 0.6621094c-0.47206531 0.255487-0.75390625 0.5370113-0.75390625 0.8378906v4 3.5c0 0.277 0.223 0.5 0.5 0.5h1.5683594c0.277 0 0.5-0.223 0.5-0.5v-2.037109c1.4261718 0.330901 3.3234537 0.537109 5.4316406 0.537109 2.108187 0 4.005469-0.206208 5.431641-0.537109v2.037109c0 0.277 0.223 0.5 0.5 0.5h1.568359c0.277 0 0.5-0.223 0.5-0.5v-3.5-4c0-0.3005765-0.280783-0.5826015-0.751953-0.8378906a1 1 0 0 0 0.251953-0.6621094 1 1 0 0 0-1-1 1 1 0 0 0-0.03125 0c-0.139164-2.0015339-0.741396-3.5-1.46875-3.5h-10zm0.3359375 1h9.3281245c0.463099 0 0.835938 1.561 0.835938 3.5 0 0.0180219-0.001889 0.0328258-0.001953 0.0507812-1.432577-0.339625-3.35878-0.5507812-5.498047-0.5507812-2.1390863 0-4.0655061 0.209254-5.4980469 0.5488281-5.93e-5 -0.0172687-0.0019531-0.0314981-0.0019531-0.0488281 0-1.939 0.3728419-3.5 0.8359375-3.5zm4.6640625 4c3.878 0 7 0.6432642 7 1.4433594v3.1132816c0 0.800095-3.122 1.443359-7 1.443359s-7-0.643264-7-1.443359v-3.1132816c0-0.8000952 3.122-1.4433594 7-1.4433594zm-5 2a1 1 0 0 0-1 1 1 1 0 0 0 1 1 1 1 0 0 0 1-1 1 1 0 0 0-1-1zm10 0a1 1 0 0 0-1 1 1 1 0 0 0 1 1 1 1 0 0 0 1-1 1 1 0 0 0-1-1zm-7.5 2c-0.277 0-0.5 0.223-0.5 0.5s0.223 0.5 0.5 0.5h5c0.277 0 0.5-0.223 0.5-0.5s-0.223-0.5-0.5-0.5h-5z" fill="#808080"/>
</svg>

<svg xmlns="http://www.w3.org/2000/svg" width="16" height="16" version="1.1">
 <path d="M 3 1 C 2.272417 1 1.6701653 2.4994719 1.53125 4.5019531 A 1 1 0 0 0 1.5 4.5 A 1 1 0 0 0 0.5 5.5 A 1 1 0 0 0 0.75390625 6.1621094 C 0.28184094 6.4175964 0 6.6991207 0 7 L 0 11 L 0 14.5 C 0 14.777 0.223 15 0.5 15 L 2.0683594 15 C 2.3453594 15 2.5683594 14.777 2.5683594 14.5 L 2.5683594 12.462891 C 3.9945312 12.793792 5.8918131 13 8 13 C 10.108187 13 12.005469 12.793792 13.431641 12.462891 L 13.431641 14.5 C 13.431641 14.777 13.654641 15 13.931641 15 L 15.5 15 C 15.777 15 16 14.777 16 14.5 L 16 11 L 16 7 C 16 6.6994235 15.719217 6.4173985 15.248047 6.1621094 A 1 1 0 0 0 15.5 5.5 A 1 1 0 0 0 14.5 4.5 A 1 1 0 0 0 14.46875 4.5 C 14.329586 2.4984661 13.727354 1 13 1 L 3 1 z M 3.3359375 2 L 12.664062 2 C 13.127161 2 13.5 3.561 13.5 5.5 C 13.5 5.5180219 13.498111 5.5328258 13.498047 5.5507812 C 12.06547 5.2111562 10.139267 5 8 5 C 5.8609137 5 3.9344939 5.209254 2.5019531 5.5488281 C 2.5018938 5.5315594 2.5 5.51733 2.5 5.5 C 2.5 3.561 2.8728419 2 3.3359375 2 z M 8 6 C 11.878 6 15 6.6432642 15 7.4433594 L 15 10.556641 C 15 11.356736 11.878 12 8 12 C 4.122 12 1 11.356736 1 10.556641 L 1 7.4433594 C 1 6.6432642 4.122 6 8 6 z M 3 8 A 1 1 0 0 0 2 9 A 1 1 0 0 0 3 10 A 1 1 0 0 0 4 9 A 1 1 0 0 0 3 8 z M 13 8 A 1 1 0 0 0 12 9 A 1 1 0 0 0 13 10 A 1 1 0 0 0 14 9 A 1 1 0 0 0 13 8 z M 5.5 10 C 5.223 10 5 10.223 5 10.5 C 5 10.777 5.223 11 5.5 11 L 10.5 11 C 10.777 11 11 10.777 11 10.5 C 11 10.223 10.777 10 10.5 10 L 5.5 10 z" fill="#808080"/>
</svg>
